X:81
T:Hare in the Corn
M:6/8
L:1/8
K:D
A|BAB d2A|BAB d2A|BdB AFD|efe e2A|BAB d2A|BAB d2A|BdB AFA|dfd d2::
A|F2A AFA|BGB AFA|BdB AFD|efe e2A|F2A AFA|BGB AFA|BdB AFA|ded d2::
f|fdd edd|fdd d2A|BdB AFD|efe e2g|fdd edd|fdB AFA|DFA deg|fdd d2:|
%%%newpage
